X:11010
T:Scholar, The
R:Reel
B:Tuneworks Tunebook (https://www.tuneworks.co.uk/)
G:Tuneworks
Z:Jon Warbrick <jon.warbrick@googlemail.com>
M:4/4
L:1/8
K:D
|: "D"dfaf gfeg | fdAG FGA=c | "G"BGGF EFGg | "A"fdec dcBA | 
"D"dfaf gfeg | fdAG FGA=c | "G"BGGF DFGg | "A"fdec "D"d4 :|
|: "D"a2 af dfaf | dfaf bagf | "C"g2 ge =cege | =cege agfg | 
"D"a2af dfaf | dfaf bagf | "G"gfef gbag | "A"fdec "D"d4 :|